www/assets/images/test_icons/flags/SK.svg

<svg fill="none" height="15" viewBox="0 0 21 15" width="21" xmlns="http://www.w3.org/2000/svg" xmlns:xlink="http://www.w3.org/1999/xlink"><mask id="a" height="15" maskUnits="userSpaceOnUse" width="21" x="0" y="0"><path d="m19 0h-17c-1.10457 0-2 .89543-2 2v11c0 1.1046.89543 2 2 2h17c1.1046 0 2-.8954 2-2v-11c0-1.10457-.8954-2-2-2z" fill="#fff"/></mask><g mask="url(#a)"><path d="m19 0h-17c-1.10457 0-2 .89543-2 2v11c0 1.1046.89543 2 2 2h17c1.1046 0 2-.8954 2-2v-11c0-1.10457-.8954-2-2-2z" fill="#0a58ac"/><g clip-rule="evenodd" fill-rule="evenodd"><path d="m0 10h21v5h-21z" fill="#f01f29"/><path d="m0 0h21v5h-21zm9.93 10h.07v-5h-7v5h.07c-.046.162-.07.33-.07.5 0 1.38 3.5 2.5 3.5 2.5s3.5-1.12 3.5-2.5c0-.17-.024-.338-.07-.5z" fill="#fff"/><path d="m9 10v-6h-5v6c0 1.105 2.5 2 2.5 2s2.5-.895 2.5-2z" fill="#f01f29"/><path d="m6 8v-1h-1v-1h1v-1h1v1h1v1h-1v1h1.5v1h-1.5v1h-1v-1h-1.5v-1z" fill="#fff"/><path d="m6.5 12s2.5-.895 2.5-2-1-1-2.5 0c-1.5-1-2.5-1.105-2.5 0s2.5 2 2.5 2z" fill="#0a58ac"/></g><path d="m19 .5h-17c-.82843 0-1.5.67157-1.5 1.5v11c0 .8284.67157 1.5 1.5 1.5h17c.8284 0 1.5-.6716 1.5-1.5v-11c0-.82843-.6716-1.5-1.5-1.5z" stroke="#000" stroke-opacity=".1"/></g></svg>

<svg width="21" height="15" viewBox="0 0 21 15" fill="none" xmlns="http://www.w3.org/2000/svg">
<mask id="mask0_3_44" style="mask-type:alpha" maskUnits="userSpaceOnUse" x="0" y="0" width="21" height="15">
<path d="M19 0H2C0.89543 0 0 0.89543 0 2V13C0 14.1046 0.89543 15 2 15H19C20.1046 15 21 14.1046 21 13V2C21 0.89543 20.1046 0 19 0Z" fill="white"/>
</mask>
<g mask="url(#mask0_3_44)">
<path d="M19 0H2C0.89543 0 0 0.89543 0 2V13C0 14.1046 0.89543 15 2 15H19C20.1046 15 21 14.1046 21 13V2C21 0.89543 20.1046 0 19 0Z" fill="#0A58AC"/>
<path fill-rule="evenodd" clip-rule="evenodd" d="M0 10H21V15H0V10Z" fill="#F01F29"/>
<path fill-rule="evenodd" clip-rule="evenodd" d="M0 0H21V5H0V0ZM9.93 10H10V5H3V10H3.07C3.024 10.162 3 10.33 3 10.5C3 11.88 6.5 13 6.5 13C6.5 13 10 11.88 10 10.5C10 10.33 9.976 10.162 9.93 10Z" fill="white"/>
<path fill-rule="evenodd" clip-rule="evenodd" d="M9 10V4H4V10C4 11.105 6.5 12 6.5 12C6.5 12 9 11.105 9 10Z" fill="#F01F29"/>
<path fill-rule="evenodd" clip-rule="evenodd" d="M6 8V7H5V6H6V5H7V6H8V7H7V8H8.5V9H7V10H6V9H4.5V8H6Z" fill="white"/>
<path fill-rule="evenodd" clip-rule="evenodd" d="M6.5 12C6.5 12 9 11.105 9 10C9 8.895 8 9 6.5 10C5 9 4 8.895 4 10C4 11.105 6.5 12 6.5 12Z" fill="#0A58AC"/>
<path d="M19 0.5H2C1.17157 0.5 0.5 1.17157 0.5 2V13C0.5 13.8284 1.17157 14.5 2 14.5H19C19.8284 14.5 20.5 13.8284 20.5 13V2C20.5 1.17157 19.8284 0.5 19 0.5Z" stroke="black" stroke-opacity="0.1"/>
</g>
</svg>
